apps/www/public/images/logos/publicity/archive/mozilla.svg

<svg width="104" height="23" viewBox="0 0 104 23" fill="none" xmlns="http://www.w3.org/2000/svg">
<path d="M103.703 19.586C103.478 19.6496 103.288 19.6843 103.097 19.6843C102.422 19.6843 102.104 19.3953 102.104 18.5641V12.2875C102.104 8.99087 99.4771 7.3857 96.3708 7.3857C93.9975 7.3857 92.7221 7.67462 90.187 8.69616L89.6216 12.0221L92.9182 12.3741L93.3858 10.7459C94.0615 10.3938 94.7314 10.3302 95.5969 10.3302C97.9355 10.3302 97.9702 12.0914 97.9702 13.5637V14.0425C97.2313 13.9446 96.3997 13.9157 95.5969 13.9157C92.3003 13.9157 88.8708 14.747 88.8708 18.3036C88.8708 21.3117 91.2379 22.4377 93.3222 22.4377C95.6604 22.4377 97.1327 21.029 97.9644 19.5567C98.1547 21.3175 99.2113 22.4377 101.134 22.4377C102.029 22.4377 102.959 22.1839 103.726 21.762L103.703 19.586ZM94.835 19.4936C93.5876 19.4936 93.1373 18.7548 93.1373 17.8249C93.1373 16.2544 94.4193 15.8387 95.8916 15.8387C96.5615 15.8387 97.3003 15.937 97.9759 16.0294C97.8777 18.437 96.3072 19.4936 94.835 19.4936ZM89.2864 0.0821686L83.0391 22.1207H78.969L85.2159 0.0825815L89.2864 0.0821686ZM80.8974 0.0821686L74.6501 22.1207H70.5853L76.8327 0.0825815L80.8974 0.0821686ZM63.553 7.67503H67.8777V12.8595H63.553V7.67503ZM63.553 16.93H67.8777V22.1207H63.553V16.93ZM57.2599 16.7393L60.5276 17.0571L59.6327 22.1207H47.0114L46.5958 19.9439L54.5403 10.8156H50.0253L49.3847 13.056L46.4051 12.7324L46.9189 7.66925H59.6038L59.9274 9.84566L51.9132 18.9797H56.59L57.2599 16.7393ZM36.5611 7.38652C31.3704 7.38652 28.8073 10.8792 28.8073 15.1057C28.8073 19.7189 31.8843 22.4381 36.3357 22.4381C40.949 22.4381 44.2807 19.5225 44.2807 14.9096C44.2807 10.8734 41.746 7.38652 36.5611 7.38652ZM36.4629 19.2682C34.2229 19.2682 33.068 17.3457 33.068 14.8457C33.068 12.1207 34.3785 10.556 36.498 10.556C38.449 10.556 40.0195 11.8665 40.0195 14.7825C40.0195 17.5363 38.6108 19.2682 36.4629 19.2682ZM25.0888 18.9797H27.0114V22.1207H20.9548V13.9855C20.9548 11.4855 20.1235 10.5267 18.4895 10.5267C16.5033 10.5267 15.7009 11.9358 15.7009 13.9566V18.9797H17.6235V22.1207H11.5727V13.9855C11.5727 11.4855 10.741 10.5267 9.10734 10.5267C7.12121 10.5267 6.31842 11.9358 6.31842 13.9566V18.9797H9.07267V22.1207H0.267578V18.9797H2.19056V10.8098H0.267578V7.66884H6.31842V9.84566C7.18478 8.31025 8.69171 7.38033 10.7067 7.38033C12.7911 7.38033 14.7079 8.3734 15.4178 10.4867C16.2206 8.56409 17.8542 7.38033 20.1293 7.38033C22.7213 7.38033 25.0946 8.95083 25.0946 12.3746V18.9797H25.0888Z" fill="#B4B4B4"/>
</svg>

<svg xmlns="http://www.w3.org/2000/svg" width="104" height="23" fill="none" viewBox="0 0 104 23"><path fill="#b4b4b4" d="M103.703 19.586a2.2 2.2 0 0 1-.606.098c-.675 0-.993-.289-.993-1.12v-6.276c0-3.297-2.627-4.902-5.733-4.902-2.373 0-3.649.289-6.184 1.31l-.565 3.326 3.296.352.468-1.628c.675-.352 1.345-.416 2.21-.416 2.34 0 2.374 1.761 2.374 3.234v.479c-.739-.098-1.57-.127-2.373-.127-3.297 0-6.726.831-6.726 4.388 0 3.008 2.367 4.134 4.451 4.134 2.338 0 3.81-1.409 4.642-2.881.19 1.76 1.247 2.88 3.17 2.88.895 0 1.825-.253 2.592-.675zm-8.868-.092c-1.247 0-1.698-.74-1.698-1.67 0-1.57 1.282-1.985 2.755-1.985.67 0 1.408.098 2.084.19-.098 2.408-1.669 3.465-3.141 3.465M89.286.082 83.04 22.121h-4.07L85.216.083zm-8.389 0L74.65 22.121h-4.065L76.833.083zM63.553 7.675h4.325v5.185h-4.325zm0 9.255h4.325v5.19h-4.325zm-6.293-.19 3.268.317-.895 5.064H47.01l-.415-2.177 7.944-9.128h-4.515l-.64 2.24-2.98-.324.514-5.063h12.685l.323 2.177-8.014 9.134h4.677zM36.56 7.386c-5.19 0-7.754 3.492-7.754 7.719 0 4.613 3.077 7.332 7.529 7.332 4.613 0 7.945-2.915 7.945-7.528 0-4.037-2.535-7.523-7.72-7.523m-.098 11.881c-2.24 0-3.395-1.922-3.395-4.422 0-2.725 1.31-4.29 3.43-4.29 1.951 0 3.522 1.31 3.522 4.227 0 2.753-1.41 4.485-3.557 4.485m-11.374-.288h1.922v3.14h-6.056v-8.135c0-2.5-.831-3.458-2.465-3.458-1.987 0-2.79 1.409-2.79 3.43v5.023h1.924v3.14h-6.051v-8.135c0-2.5-.832-3.458-2.466-3.458-1.986 0-2.789 1.409-2.789 3.43v5.023h2.755v3.14H.268v-3.14H2.19v-8.17H.268V7.669h6.05v2.177C7.185 8.31 8.692 7.38 10.707 7.38c2.084 0 4 .993 4.71 3.107.804-1.923 2.437-3.107 4.712-3.107 2.592 0 4.966 1.57 4.966 4.995v6.605z"/></svg>
